X: 1475
T: The Black Eyed Sailor
M:C|
L:1/8
N:"collected by Tobin"
B:O'Neill's 1475
Z:"Transcribed by Bob Safranek, rjs@gsp.org"
K:G
G2 (BG) DGBG |  ABcA   BGGB |   AGAB  cBcA | EAAG  FDEF   |
G2 (BG) DGBd |  cBAB   cdef |   gedB  cBce | dBcA (BG) G2 ||
g2 (bg) dgbg | f2 (ag) fdde | f2 (af) dfaf | gbag  fdef   |
g2 (bg) dgbg | f2  ag  fddf |   gedB  cBce | dBcA (BG) G2 |]
